docs-src/static/files/icons/appwrite-small.svg

<svg class="max-w-full" xmlns="http://www.w3.org/2000/svg" width="112" height="98" viewBox="0 0 112 98"
  fill="none">
  <path
    d="M111.1 73.4729V97.9638H48.8706C30.7406 97.9638 14.9105 88.114 6.44112 73.4729C5.2099 71.3444 4.13229 69.1113 3.22835 66.7935C1.45387 62.2516 0.338421 57.3779 0 52.2926V45.6712C0.0734729 44.5379 0.189248 43.4135 0.340647 42.3025C0.650124 40.0227 1.11768 37.7918 1.73218 35.6232C7.54544 15.0641 26.448 0 48.8706 0C71.2932 0 90.1935 15.0641 96.0068 35.6232H69.3985C65.0302 28.9216 57.4692 24.491 48.8706 24.491C40.272 24.491 32.711 28.9216 28.3427 35.6232C27.0113 37.6604 25.9782 39.9069 25.3014 42.3025C24.7002 44.4266 24.3796 46.6664 24.3796 48.9819C24.3796 56.0019 27.3319 62.3295 32.0653 66.7935C36.4515 70.9369 42.3649 73.4729 48.8706 73.4729H111.1Z"
    fill="#FD366E" />
  <path
    d="M111.1 42.3027V66.7937H65.6759C70.4094 62.3297 73.3616 56.0021 73.3616 48.9821C73.3616 46.6666 73.041 44.4268 72.4399 42.3027H111.1Z"
    fill="#FD366E" />
</svg>

<svg xmlns="http://www.w3.org/2000/svg" width="112" height="98" fill="none" class="max-w-full"><path fill="#FD366E" d="M111.1 73.473v24.49H48.87c-18.13 0-33.96-9.849-42.429-24.49A48.683 48.683 0 0 1 0 52.293V45.67c.073-1.133.19-2.258.34-3.368.31-2.28.778-4.511 1.392-6.68C7.545 15.064 26.448 0 48.871 0c22.422 0 41.323 15.064 47.136 35.623H69.398C65.03 28.922 57.47 24.491 48.872 24.491s-16.16 4.43-20.528 11.132a24.3 24.3 0 0 0-3.042 6.68 24.5 24.5 0 0 0-.921 6.679c0 7.02 2.952 13.348 7.685 17.811a24.4 24.4 0 0 0 16.806 6.68z"/><path fill="#FD366E" d="M111.1 42.303v24.49H65.676a24.4 24.4 0 0 0 7.686-17.81c0-2.316-.321-4.556-.922-6.68z"/></svg>
